X:1
T:6 Lieder
T:Frühlingsliebe
T:Moritz Hauptmann
T:C. Keil
T:Frühlingsliebe
T:Op. 32,3
T:CPDL - Creative Commons Attribution Non Commercial 3.0
T:CPDL - Creative Commons Attribution Non Commercial 3.0
C:Moritz Hauptmann
Z:C. Keil
Z:CPDL - Creative Commons Attribution Non Commercial 3.0
%%score [ ( 1 2 ) ( 3 4 ) ]
L:1/8
Q:1/4=88
M:2/4
K:G
V:1 treble nm="S\nA" snm="S\nA"
V:2 treble 
V:3 bass nm="T\nB" snm="T\nB"
V:4 bass 
V:1
"^Allegretto"!mf! Bc | d3 c | BB cB | A2 d2 | B2 | z2 | z4 | z4 | z4 | z2 | AB | c3 B | %12
w: 1.~Wenn der|Früh- ling|kommt und von den|Ber- gen|schaut,||||||wenn die|Bäch- lein|
w: 2.~Wenn der|Weich- sel-|baum die duft'- gen|Blü- ten|schneit,||||||wenn die|Tau- ben|
w: 3.~Wenn die|Wie- sen|schmückt der Blu- men|bun- te|Zier,||||||wenn die|Fin- ken|
 BA!<(! Ac!<)! |!>(! e3 d!>)! | dc z2 |"^dolce"!<(! B2 d2!<)! |!>(! dc A!>)!^A |!<(! B2 d2!<)! | %18
w: quel- len und die|Knos- pen|schwel- len,|wird die|Sehn- * * sucht|mir im|
w: gir- ren und die|Bie- nen|schwir- ren,|dann be-|ginnt _ _ der|Lie- be|
w: schla- gen und zu|Nes- te|tra- gen,|such' auch|ich _ _ ein|sü- ßes|
!>(! dc A!>)!^A |[Q:1/4=80]"^poco riten." B2"^cresc." d2 | dc B=A | G2"^dim." B2 | BA EF | G2 B2 | %24
w: Her- * * zen|laut, die|Sehn- * * sucht|mir im|Her- * * zen|laut, im|
w: gold'- * * ne|Zeit, der|Lie- * * be|gold'- ne,|gold'- * * ne|Zeit, der|
w: Lieb- * * chen|mir, ein|sü- * * ßes,|sü- ßes|Lieb- * * chen|mir, ein|
 BA!<(! EA!<)! |!>(! F4- | F2!>)! AG | G4 | z2 |] %29
w: Her- * zen, im|Her-|* zen _|laut.||
w: Lie- * * be|gold'-|* ne _|Zeit.||
w: sü- * * ßes|Lieb|_ chen _|mir.||
V:2
 GA | B3 A | GG AG | F2 D2 | G2 | x2 | x4 | x4 | x4 | x2 | AG | F3 G | GF FA | c3 B | BA x2 | %15
 G2 =F2 | ^F3 F | G2 =F2 | ^F3 F | G2 G2 | ^GA =FE | D2 D2 | (^C2 =C)C | B,2 D2 | ^C2 EC | =C4- | %26
 C2 CB, | B,4 | x2 |] %29
V:3
 z2 | z4 | z4 | z4 | z2 |!mf! B,C | D3 C | B,B, CB, | A,2 D2 | B,2 | DD | D3 D | DD!<(! EC!<)! | %13
w: |||||wenn der|Schnee im|Tal und auf den|Hü- geln|taut,||||
w: |||||wenn die|Stör- che|kom- men und der|Ku- ckuck|schreit,||||
w: |||||und die|Lie- be|ruft aus Busch und|Wald- re-|vier,||||
!>(! A,3 B,!>)! | G,A, z2 |"^dolce"!<(! D2 B,2!<)! |!>(! C3!>)! D |!<(! D2 B,2!<)! |!>(! C3!>)! D | %19
w: ||||||
w: ||||||
w: ||||||
 D2"^cresc." =F2 | =FE DC | B,2 G,2 | (E,2 A,)D, | D,2 D,2 | E,2!<(! ^C,E,!<)! |!>(! A,4- | %26
w: |||||||
w: |||* * ne|Zeit. _|_ _ _||
w: |||||||
 A,2!>)! F,G, | D,4 | z2 |] %29
w: |||
w: |||
w: |||
V:4
 x2 | x4 | x4 | x4 | x2 | G,A, | B,3 A, | G,G, A,G, | F,2 D,2 | G,2 | F,G, | A,3 G, | G,D, CA, | %13
w: |||||||||||||
w: |||||||||||||
w: |||||||||||||
 F,3 G, | E,F, x2 | G,2 ^G,2 | A,3 D, | G,2 ^G,2 | A,3 D, | G,2 B,,2 | (C,2 ^G,,)A,, | %21
w: ||||||||
w: ||||||||
w: ||||||||
 D,"^dim."D, D,2- | D,3 D, | G,,4- | G,,4- | G,,4- | G,,4- | G,,4 | x2 |] %29
w: mir im Her-|* zen|laut.||||||
w: gold'- ne, gold'-||||||||
w: sü- ßes Lieb-|* chen|mir.||||||

